Misc/legend.svg

<svg xmlns="http://www.w3.org/2000/svg" viewBox="0 0 1200 800" preserveAspectRatio="none" width="1200" height="800">
 <path d="M0,0H1200V800H0Z" style="fill: white;"></path>
 <g>
  <g transform="translate(120,80)">
   <path d="M0,0H960V640H0Z" style="fill: white; stroke: black; stroke-width: 1;"></path>
   <svg x="0" y="0" overflow="hidden" width="960" height="640" viewBox="0 0 960 640">
    <g>
     <path d="M80,320l40,82l40,75l40,59l40,38l40,13l40,-13l40,-38l40,-59l40,-75l40,-82l40,-82l40,-75l40,-59l40,-38l40,-13l40,13l40,38l40,59l40,75l40,82" style="stroke: black; stroke-width: 1; fill: none;"></path>
     <path d="M80,320h1m39,82h1m39,75h1m39,59h1m39,38h1m39,13h1m39,-13h1m39,-38h1m39,-59h1m39,-75h1m39,-82h1m39,-82h1m39,-75h1m39,-59h1M640,66h1M680,53h1m39,13h1m39,38h1m39,59h1m39,75h1m39,82h1" style="stroke: black; fill: none;"></path>
    </g>
    <g>
     <path d="M80,587l40,-13l40,-38l40,-59l40,-75l40,-82l40,-82l40,-75l40,-59l40,-38l40,-13l40,13l40,38l40,59l40,75l40,82l40,82l40,75l40,59l40,38l40,13" style="stroke: #ff0000; stroke-width: 1; fill: none;"></path>
    </g>
   </svg>
   <g>
    <g transform="translate(0,640)">
     <path d="M0,0h960M22,-12v12m25,-12v12m26,-12v12m25,-24v24m25,-12v12m26,-12v12m25,-12v12m26,-12v12m25,-24v24m26,-12v12m25,-12v12m26,-12v12m25,-12v12m26,-24v24m25,-12v12m26,-12v12m25,-12v12m26,-12v12m25,-24v24m25,-12v12m26,-12v12m25,-12v12m26,-12v12m25,-24v24m26,-12v12m25,-12v12m26,-12v12m25,-12v12m26,-24v24m25,-12v12m26,-12v12m25,-12v12m26,-12v12m25,-24v24m25,-12v12m26,-12v12m25,-12v12" style="stroke: black; stroke-width: 1;"></path>
     <g font-family="Arial" font-size="28" space="preserve" fill="black" text-anchor="middle">
      <text dy=".8em" transform="translate(98,6)">
       -3
      </text>
      <text dy=".8em" transform="translate(225,6)">
       -2
      </text>
      <text dy=".8em" transform="translate(353,6)">
       -1
      </text>
      <text dy=".8em" transform="translate(480,6)">
       0
      </text>
      <text dy=".8em" transform="translate(607,6)">
       1
      </text>
      <text dy=".8em" transform="translate(735,6)">
       2
      </text>
      <text dy=".8em" transform="translate(862,6)">
       3
      </text>
     </g>
    </g>
    <g>
     <path d="M0,0v640M18,613h-18m36,-26h-36m18,-27h-18m18,-27h-18m18,-26h-18m18,-27h-18m36,-27h-36m18,-26h-18m18,-27h-18m18,-27h-18m18,-26h-18m36,-27h-36m18,-27h-18m18,-26h-18m18,-27h-18m18,-27h-18m36,-26h-36m18,-27h-18m18,-27h-18m18,-26h-18m18,-27h-18m36,-27h-36m18,-26h-18" style="stroke: black; stroke-width: 1;"></path>
     <g font-family="Arial" font-size="28" space="preserve" fill="black" text-anchor="end">
      <text dy=".4em" transform="translate(-4,587)">
       -1
      </text>
      <text dy=".4em" transform="translate(-4,453)">
       -0.5
      </text>
      <text dy=".4em" transform="translate(-4,320)">
       0
      </text>
      <text dy=".4em" transform="translate(-4,187)">
       0.5
      </text>
      <text dy=".4em" transform="translate(-4,53)">
       1
      </text>
     </g>
    </g>
    <g transform="translate(960)">
     <path d="M0,0v640M0,613h-18m18,-26h-36m36,-27h-18m18,-27h-18m18,-26h-18m18,-27h-18m18,-27h-36m36,-26h-18m18,-27h-18m18,-27h-18m18,-26h-18m18,-27h-36m36,-27h-18m18,-26h-18m18,-27h-18m18,-27h-18m18,-26h-36m36,-27h-18m18,-27h-18m18,-26h-18m18,-27h-18m18,-27h-36m36,-26h-18" style="stroke: red; stroke-width: 1;"></path>
     <g font-family="Arial" font-size="28" space="preserve" fill="red" text-anchor="start">
      <text dy=".4em" transform="translate(4,587)">
       -0.10
      </text>
      <text dy=".4em" transform="translate(4,453)">
       -0.05
      </text>
      <text dy=".4em" transform="translate(4,320)">
       0
      </text>
      <text dy=".4em" transform="translate(4,187)">
       0.05
      </text>
      <text dy=".4em" transform="translate(4,53)">
       0.10
      </text>
     </g>
    </g>
   </g>
  </g>
  <g transform="translate(120,4)" font-family="Arial" font-size="40" space="preserve">
   <text fill="black" text-anchor="middle" dy=".8em" transform="translate(480)">
    Graph
   </text>
  </g>
  <g transform="translate(696,88)" font-family="Arial" font-size="40" space="preserve">
   <path d="M0,0H372V120H0Z" style="fill: white; stroke: black; stroke-width: 1;"></path>
   <path d="M11,32H82" style="stroke: black; stroke-width: 1;"></path>
   <text fill="black" text-anchor="middle" dy=".4em" transform="translate(227,32)">
    c1/pad1/[0]
   </text>
   <path d="M11,88H82" style="stroke: #ff0000; stroke-width: 1;"></path>
   <text fill="black" text-anchor="middle" dy=".4em" transform="translate(227,88)">
    c1/pad2/[0]
   </text>
  </g>
 </g>
</svg>

<svg xmlns="http://www.w3.org/2000/svg" viewBox="0 0 1200 800" preserveAspectRatio="none" width="1200" height="800">
 <path d="M0,0H1200V800H0Z" style="fill: white;"></path>
 <g>
  <g transform="translate(120,80)">
   <path d="M0,0H960V640H0Z" style="fill: white; stroke: black; stroke-width: 1;"></path>
   <svg x="0" y="0" overflow="hidden" width="960" height="640" viewBox="0 0 960 640">
    <g>
     <path d="M80,320l40,82l40,75l40,59l40,38l40,13l40,-13l40,-38l40,-59l40,-75l40,-82l40,-82l40,-75l40,-59l40,-38l40,-13l40,13l40,38l40,59l40,75l40,82" style="stroke: black; stroke-width: 1; fill: none;"></path>
     <path d="M80,320h1m39,82h1m39,75h1m39,59h1m39,38h1m39,13h1m39,-13h1m39,-38h1m39,-59h1m39,-75h1m39,-82h1m39,-82h1m39,-75h1m39,-59h1M640,66h1M680,53h1m39,13h1m39,38h1m39,59h1m39,75h1m39,82h1" style="stroke: black; fill: none;"></path>
    </g>
    <g>
     <path d="M80,587l40,-13l40,-38l40,-59l40,-75l40,-82l40,-82l40,-75l40,-59l40,-38l40,-13l40,13l40,38l40,59l40,75l40,82l40,82l40,75l40,59l40,38l40,13" style="stroke: #ff0000; stroke-width: 1; fill: none;"></path>
    </g>
   </svg>
   <g>
    <g transform="translate(0,640)">
     <path d="M0,0h960M22,-12V0M47,-12V0M73,-12V0M98,-24V0M123,-12V0M149,-12V0M174,-12V0M200,-12V0M225,-24V0M251,-12V0M276,-12V0M302,-12V0M327,-12V0M353,-24V0M378,-12V0M404,-12V0M429,-12V0M455,-12V0M480,-24V0M505,-12V0M531,-12V0M556,-12V0M582,-12V0M607,-24V0M633,-12V0M658,-12V0M684,-12V0M709,-12V0M735,-24V0M760,-12V0M786,-12V0M811,-12V0M837,-12V0M862,-24V0M887,-12V0M913,-12V0M938,-12V0" style="stroke: black; stroke-width: 1;"></path>
     <g font-family="Arial" font-size="28" space="preserve" fill="black" text-anchor="middle">
      <text dy=".8em" transform="translate(98,6)">
       -3
      </text>
      <text dy=".8em" transform="translate(225,6)">
       -2
      </text>
      <text dy=".8em" transform="translate(353,6)">
       -1
      </text>
      <text dy=".8em" transform="translate(480,6)">
       0
      </text>
      <text dy=".8em" transform="translate(607,6)">
       1
      </text>
      <text dy=".8em" transform="translate(735,6)">
       2
      </text>
      <text dy=".8em" transform="translate(862,6)">
       3
      </text>
     </g>
    </g>
    <g>
     <path d="M0,0v640M18,613H0M36,587H0M18,560H0M18,533H0M18,507H0M18,480H0M36,453H0M18,427H0M18,400H0M18,373H0M18,347H0M36,320H0M18,293H0M18,267H0M18,240H0M18,213H0M36,187H0M18,160H0M18,133H0M18,107H0M18,80H0M36,53H0M18,27H0" style="stroke: black; stroke-width: 1;"></path>
     <g font-family="Arial" font-size="28" space="preserve" fill="black" text-anchor="end">
      <text dy=".4em" transform="translate(-4,587)">
       -1
      </text>
      <text dy=".4em" transform="translate(-4,453)">
       -0.5
      </text>
      <text dy=".4em" transform="translate(-4,320)">
       0
      </text>
      <text dy=".4em" transform="translate(-4,187)">
       0.5
      </text>
      <text dy=".4em" transform="translate(-4,53)">
       1
      </text>
     </g>
    </g>
    <g transform="translate(960)">
     <path d="M0,0v640M0,613H-18M0,587H-36M0,560H-18M0,533H-18M0,507H-18M0,480H-18M0,453H-36M0,427H-18M0,400H-18M0,373H-18M0,347H-18M0,320H-36M0,293H-18M0,267H-18M0,240H-18M0,213H-18M0,187H-36M0,160H-18M0,133H-18M0,107H-18M0,80H-18M0,53H-36M0,27H-18" style="stroke: red; stroke-width: 1;"></path>
     <g font-family="Arial" font-size="28" space="preserve" fill="red" text-anchor="start">
      <text dy=".4em" transform="translate(4,587)">
       -0.10
      </text>
      <text dy=".4em" transform="translate(4,453)">
       -0.05
      </text>
      <text dy=".4em" transform="translate(4,320)">
       0
      </text>
      <text dy=".4em" transform="translate(4,187)">
       0.05
      </text>
      <text dy=".4em" transform="translate(4,53)">
       0.10
      </text>
     </g>
    </g>
   </g>
  </g>
  <g transform="translate(120,4)" font-family="Arial" font-size="40" space="preserve">
   <text fill="black" text-anchor="middle" dy=".8em" transform="translate(480)">
    Graph
   </text>
  </g>
  <g transform="translate(696,88)" font-family="Arial" font-size="40" space="preserve">
   <path d="M0,0H372V120H0Z" style="fill: white; stroke: black; stroke-width: 1;"></path>
   <path d="M11,32H82" style="stroke: black; stroke-width: 1;"></path>
   <text fill="black" text-anchor="middle" dy=".4em" transform="translate(227,32)">
    c1/pad1/[0]
   </text>
   <path d="M11,88H82" style="stroke: #ff0000; stroke-width: 1;"></path>
   <text fill="black" text-anchor="middle" dy=".4em" transform="translate(227,88)">
    c1/pad2/[0]
   </text>
  </g>
 </g>
</svg>
